X: 288
T: Jiemei lia
L: 1/8
M: 3/4
K: Bb
d' d'/ d'/ d' g [I:setbarnb 1]| 
d'> f'd'2 | 
d' d'/ f'/ g'/ f'/ d'/ c'/ | 
d'> c' d'/ c'/ b b z | 
[M:2/4]d' d'/ f'/ d' g | 
g> d' d' g | 
g> d' d' g | 
f/ g/d3 | 
d' d'/ c'/ d' a | 
g/ a/ g/ f/d2 | 
d' d'/ f'/ a a | 
g/ a/ g/ f/d2 | 
d' d' a a | 
g> ad2 | 
b> c' d' d' | 
b> c' d' f' | 
d' c' b g | 
d' d'/ c'< a c'/ | 
a gf2 |]

@@@ Tune index: 9162
